packages/react-icons/icons/clipboard-with-plus.svg

<svg width="24" height="25" viewBox="0 0 24 25" xmlns="http://www.w3.org/2000/svg"><path fill-rule="evenodd" clip-rule="evenodd" d="M8.03244 3.41016C7.53538 3.41016 7.13244 3.8131 7.13244 4.31016V4.67107H5.61045C5.11339 4.67107 4.71045 5.07401 4.71045 5.57107V20.6901C4.71045 21.1871 5.11339 21.5901 5.61045 21.5901H18.3901C18.8872 21.5901 19.2901 21.1871 19.2901 20.6901V5.57107C19.2901 5.07401 18.8872 4.67107 18.3901 4.67107H16.8626V4.31016C16.8626 3.8131 16.4597 3.41016 15.9626 3.41016H8.03244ZM16.8626 6.47107V6.76808C16.8626 7.26514 16.4597 7.66808 15.9626 7.66808H8.03244C7.53538 7.66808 7.13244 7.26514 7.13244 6.76808V6.47107H6.51045V19.7901H17.4901V6.47107H16.8626ZM8.93244 5.86808V5.21016H15.0626V5.86808H8.93244ZM11.9979 10.3329C12.4949 10.3329 12.8979 10.7358 12.8979 11.2329V12.874H14.4483C14.9454 12.874 15.3483 13.2769 15.3483 13.774C15.3483 14.271 14.9454 14.674 14.4483 14.674H12.8979V16.2376C12.8979 16.7347 12.4949 17.1376 11.9979 17.1376C11.5008 17.1376 11.0979 16.7347 11.0979 16.2376V14.674H9.46251C8.96546 14.674 8.56251 14.271 8.56251 13.774C8.56251 13.2769 8.96546 12.874 9.46251 12.874H11.0979V11.2329C11.0979 10.7358 11.5008 10.3329 11.9979 10.3329Z"/></svg>

<svg xmlns="http://www.w3.org/2000/svg" width="24" height="25"><path fill-rule="evenodd" d="M8.032 3.41a.9.9 0 0 0-.9.9v.361H5.61a.9.9 0 0 0-.9.9v15.12a.9.9 0 0 0 .9.9h12.78a.9.9 0 0 0 .9-.9V5.57a.9.9 0 0 0-.9-.9h-1.527v-.36a.9.9 0 0 0-.9-.9h-7.93Zm8.83 3.061v.297a.9.9 0 0 1-.9.9h-7.93a.9.9 0 0 1-.9-.9v-.297H6.51v13.32h10.98V6.47h-.627Zm-7.93-.603V5.21h6.13v.658h-6.13Zm3.066 4.465a.9.9 0 0 1 .9.9v1.641h1.55a.9.9 0 1 1 0 1.8h-1.55v1.564a.9.9 0 0 1-1.8 0v-1.564H9.463a.9.9 0 0 1 0-1.8h1.635v-1.641a.9.9 0 0 1 .9-.9Z" clip-rule="evenodd"/></svg>
